svg/business/coupon_line.svg

<?xml version="1.0" encoding="UTF-8"?>
<svg width="24px" height="24px" viewBox="0 0 24 24" version="1.1" xmlns="http://www.w3.org/2000/svg" xmlns:xlink="http://www.w3.org/1999/xlink">
    <title>coupon_line</title>
    <g id="页面-1" stroke="none" stroke-width="1" fill="none" fill-rule="evenodd">
        <g id="Business" transform="translate(-480.000000, 0.000000)" fill-rule="nonzero">
            <g id="coupon_line" transform="translate(480.000000, 0.000000)">
                <path d="M24,0 L24,24 L0,24 L0,0 L24,0 Z M12.5934901,23.257841 L12.5819402,23.2595131 L12.5108777,23.2950439 L12.4918791,23.2987469 L12.4918791,23.2987469 L12.4767152,23.2950439 L12.4056548,23.2595131 C12.3958229,23.2563662 12.3870493,23.2590235 12.3821421,23.2649074 L12.3780323,23.275831 L12.360941,23.7031097 L12.3658947,23.7234994 L12.3769048,23.7357139 L12.4804777,23.8096931 L12.4953491,23.8136134 L12.4953491,23.8136134 L12.5071152,23.8096931 L12.6106902,23.7357139 L12.6232938,23.7196733 L12.6232938,23.7196733 L12.6266527,23.7031097 L12.609561,23.275831 C12.6075724,23.2657013 12.6010112,23.2592993 12.5934901,23.257841 L12.5934901,23.257841 Z M12.8583906,23.1452862 L12.8445485,23.1473072 L12.6598443,23.2396597 L12.6498822,23.2499052 L12.6498822,23.2499052 L12.6471943,23.2611114 L12.6650943,23.6906389 L12.6699349,23.7034178 L12.6699349,23.7034178 L12.678386,23.7104931 L12.8793402,23.8032389 C12.8914285,23.8068999 12.9022333,23.8029875 12.9078286,23.7952264 L12.9118235,23.7811639 L12.8776777,23.1665331 C12.8752882,23.1545897 12.8674102,23.1470016 12.8583906,23.1452862 L12.8583906,23.1452862 Z M12.1430473,23.1473072 C12.1332178,23.1423925 12.1221763,23.1452606 12.1156365,23.1525954 L12.1099173,23.1665331 L12.0757714,23.7811639 C12.0751323,23.7926639 12.0828099,23.8018602 12.0926481,23.8045676 L12.108256,23.8032389 L12.3092106,23.7104931 L12.3186497,23.7024347 L12.3186497,23.7024347 L12.3225043,23.6906389 L12.340401,23.2611114 L12.337245,23.2485176 L12.337245,23.2485176 L12.3277531,23.2396597 L12.1430473,23.1473072 Z" id="MingCute" fill-rule="nonzero"></path>
                <path d="M19,4 C20.597725,4 21.903664,5.24892392 21.9949075,6.82372764 L22,7 L22,8.81712 C22,9.42348923 21.6476686,9.89537609 21.224032,10.1466323 L21.1168,10.2048 C20.4531,10.5323 20,11.2142 20,12 C20,12.7296714 20.3906832,13.3697556 20.9778904,13.7196882 L21.1168,13.7952 C21.5503692,14.0090769 21.9360521,14.4507976 21.9928224,15.0341588 L22,15.1829 L22,17 C22,18.597725 20.7511226,19.903664 19.1762773,19.9949075 L19,20 L5,20 C3.40232321,20 2.09633941,18.7511226 2.00509271,17.1762773 L2,17 L2,15.1829 C2,14.5765308 2.35233136,14.1046183 2.77595223,13.8533661 L2.88318,13.7952 C3.54691,13.4677 4,12.7858 4,12 C4,11.2703286 3.60932546,10.6302444 3.02209542,10.2803118 L2.88318,10.2048 C2.44962923,9.99091385 2.06394781,9.54921799 2.0071776,8.96586074 L2,8.81712 L2,7 C2,5.40232321 3.24892392,4.09633941 4.82372764,4.00509271 L5,4 L19,4 Z M19,6 L5,6 C4.48716857,6 4.06449347,6.38604429 4.0067278,6.88337975 L4,7 L4,8.53534 C5.1939,9.22587 6,10.518 6,12 C6,13.404 5.27651967,14.6375634 4.18522683,15.3507193 L4,15.4647 L4,17 C4,17.51285 4.38604429,17.9355092 4.88337975,17.9932725 L5,18 L19,18 C19.51285,18 19.9355092,17.613973 19.9932725,17.1166239 L20,17 L20,15.4647 C18.8061,14.7741 18,13.482 18,12 C18,10.596 18.7234803,9.36240964 19.8147732,8.64931897 L20,8.53535 L20,7 C20,6.48716857 19.613973,6.06449347 19.1166239,6.0067278 L19,6 Z M10,9 C10.51285,9 10.9355092,9.38604429 10.9932725,9.88337975 L11,10 L11,14 C11,14.5523 10.5523,15 10,15 C9.48716857,15 9.06449347,14.613973 9.0067278,14.1166239 L9,14 L9,10 C9,9.44772 9.44772,9 10,9 Z" id="形状" fill="#09244B"></path>
            </g>
        </g>
    </g>
</svg>

<svg xmlns="http://www.w3.org/2000/svg" width="24" height="24"><g fill="none" fill-rule="nonzero"><path d="M24 0v24H0V0zM12.593 23.258l-.011.002-.071.035-.02.004-.014-.004-.071-.035c-.01-.004-.019-.001-.024.005l-.004.01-.017.428.005.02.01.013.104.074.015.004.012-.004.104-.074.012-.016.004-.017-.017-.427c-.002-.01-.009-.017-.017-.018m.265-.113-.013.002-.185.093-.01.01-.003.011.018.43.005.012.008.007.201.093c.012.004.023 0 .029-.008l.004-.014-.034-.614c-.003-.012-.01-.02-.02-.022m-.715.002a.023.023 0 0 0-.027.006l-.006.014-.034.614c0 .012.007.02.017.024l.015-.002.201-.093.01-.008.004-.011.017-.43-.003-.012-.01-.01z"/><path fill="#09244B" d="M19 4a3 3 0 0 1 2.995 2.824L22 7v1.817a1.55 1.55 0 0 1-.776 1.33l-.107.058a2 2 0 0 0-.14 3.515l.14.075c.433.214.82.656.876 1.24l.007.148V17a3 3 0 0 1-2.824 2.995L19 20H5a3 3 0 0 1-2.995-2.824L2 17v-1.817c0-.606.352-1.078.776-1.33l.107-.058a2 2 0 0 0 .14-3.515l-.14-.075c-.433-.214-.82-.656-.876-1.24L2 8.818V7a3 3 0 0 1 2.824-2.995L5 4zm0 2H5a1 1 0 0 0-.993.883L4 7v1.535a3.999 3.999 0 0 1 .185 6.816L4 15.465V17a1 1 0 0 0 .883.993L5 18h14a1 1 0 0 0 .993-.883L20 17v-1.535a3.999 3.999 0 0 1-.185-6.816L20 8.535V7a1 1 0 0 0-.883-.993zm-9 3a1 1 0 0 1 .993.883L11 10v4a1 1 0 0 1-1.993.117L9 14v-4a1 1 0 0 1 1-1"/></g></svg>
